X:57
T:Cuckoo's Nest
M:2/4
Q:1/4=100
L:1/16
K:D
%%MIDI channel 1
%%MIDI program 72
%%MIDI transpose 8
%%MIDI grace 1/8
%%MIDI ratio 3 1
cd|ecAc ecaf|edcB A2Bc|dBGB dBge|dcBA G2Bd|cAce a2fa|
gfec d2ec|dcBA ^GABd|c2A2A2::(3(ef^g)|a2a^g abc'a|bagf e2>f2|
g2gf gabg|agfe d2ed|cAce a2fa|gfec d2ec|dcBA ^GABd|c2A2A2:|

